gilbertguide/assets/images/item_3707.svg

<?xml version="1.0" standalone="no"?><!DOCTYPE svg PUBLIC "-//W3C//DTD SVG 1.1//EN" "http://www.w3.org/Graphics/SVG/1.1/DTD/svg11.dtd"><svg xmlns="http://www.w3.org/2000/svg" version="1.1" width="125px" height="163.5px" viewBox="0 0 125 163.5"><desc>Squirrel</desc><defs/><g id="Polygon7396"><path d="m42.5 81.4c.4.2 1.1.4 1.7.4c.9 0 1.3-.5 1.3-1.2c0-.7-.4-1.1-1.3-1.6c-1.3-.9-1.9-1.9-1.9-2.9c0-1.6 1.1-2.9 3.2-2.9c.7 0 1.3.2 1.6.3c0 0-.3 1.7-.3 1.7c-.3-.1-.7-.3-1.3-.3c-.8 0-1.2.5-1.2 1c0 .6.3 1 1.3 1.6c1.4.8 1.9 1.8 1.9 2.9c0 1.9-1.4 3.1-3.4 3.1c-.8 0-1.5-.2-1.9-.4c0 0 .3-1.7.3-1.7zm9.5 1.3c0 0-.07.05-.1 0c-.3.5-.7.8-1.4.8c-1.4 0-2.2-1.7-2.2-3.6c0-2.5 1.1-4 2.5-4c.5 0 1 .2 1.4.9c-.04.01 0 0 0 0l.1-.8c0 0 1.69.04 1.7 0c0 .7-.1 1.5-.1 2.4c.03-.03 0 7.9 0 7.9l-1.9 0l0-3.6zm0-4c0-.1-.1-.3-.1-.4c-.1-.5-.4-.7-.7-.7c-.6 0-.9.8-.9 2.1c0 1.3.3 2.2.9 2.2c.3 0 .6-.2.7-.7c0-.1.1-.3.1-.4c0 0 0-2.1 0-2.1zm8.7 2.4c0 .8 0 1.6 0 2.3c.02-.02-1.7 0-1.7 0l-.1-.8c0 0-.01 0 0 0c-.4.5-1 .9-1.7.9c-1.4 0-2-1-2-3c.03-.02 0-4.5 0-4.5l2 0c0 0 0 4.27 0 4.3c0 .9.2 1.5.7 1.5c.4 0 .6-.2.7-.4c.1-.2.1-.4.1-.7c0 .02 0-4.7 0-4.7l2 0c0 0-.04 5.14 0 5.1zm1.4 2.3l0-7.4l1.9 0l0 7.4l-1.9 0zm1.9-9.3c.1.6-.4 1.1-1 1.1c-.5 0-1-.5-1-1.1c0-.7.5-1.1 1-1.1c.6 0 1 .4 1 1.1zm1.4 4.1c0-.7 0-1.5 0-2.2c-.04.04 1.7 0 1.7 0l.1 1.1c0 0 .02.01 0 0c.3-.8.9-1.2 1.5-1.2c.2 0 .3 0 .4.1c0 0 0 1.9 0 1.9c-.1 0-.3 0-.4 0c-.5 0-1 .3-1.2 1c-.1.2-.1.4-.1.7c-.02.04 0 3.8 0 3.8l-2 0c0 0 .02-5.16 0-5.2zm4.4 0c0-.7 0-1.5 0-2.2c-.03.04 1.7 0 1.7 0l.1 1.1c0 0 .03.01 0 0c.3-.8.9-1.2 1.5-1.2c.2 0 .3 0 .4.1c0 0 0 1.9 0 1.9c-.1 0-.3 0-.4 0c-.5 0-1 .3-1.2 1c-.1.2-.1.4-.1.7c-.01.04 0 3.8 0 3.8l-2 0c0 0 .03-5.16 0-5.2zm6 2.2c0 1.1.7 1.6 1.6 1.6c.5 0 1-.2 1.4-.3c0 0 .2 1.4.2 1.4c-.5.2-1.2.4-2 .4c-2 0-3.1-1.4-3.1-3.6c0-2.5 1.3-4 3-4c1.5 0 2.5 1.3 2.5 3.5c0 .5-.1.8-.1 1c0 0-3.5 0-3.5 0zm1.8-1.4c0-.9-.3-1.7-.9-1.7c-.6 0-.9 1-.9 1.7c0 0 1.8 0 1.8 0zm2.9-6l1.9 0l0 10.4l-1.9 0l0-10.4z" stroke="none" fill="#000" fill-opacity="0.7"/></g></svg>

<?xml version="1.0" standalone="no"?><!DOCTYPE svg PUBLIC "-//W3C//DTD SVG 1.1//EN" "http://www.w3.org/Graphics/SVG/1.1/DTD/svg11.dtd"><svg xmlns="http://www.w3.org/2000/svg" version="1.1" width="125px" height="163.5px" viewBox="0 0 125 163.5">  <desc>Squirrel</desc>  <defs/>  <g id="Polygon11425">    <path d="M 42.5 81.4 C 42.9 81.6 43.6 81.8 44.2 81.8 C 45.1 81.8 45.5 81.3 45.5 80.6 C 45.5 79.9 45.1 79.5 44.2 79 C 42.9 78.1 42.3 77.1 42.3 76.1 C 42.3 74.5 43.4 73.2 45.5 73.2 C 46.2 73.2 46.8 73.4 47.1 73.5 C 47.1 73.5 46.8 75.2 46.8 75.2 C 46.5 75.1 46.1 74.9 45.5 74.9 C 44.7 74.9 44.3 75.4 44.3 75.9 C 44.3 76.5 44.6 76.9 45.6 77.5 C 47 78.3 47.5 79.3 47.5 80.4 C 47.5 82.3 46.1 83.5 44.1 83.5 C 43.3 83.5 42.6 83.3 42.2 83.1 C 42.2 83.1 42.5 81.4 42.5 81.4 Z M 52 82.7 C 52 82.7 51.93 82.75 51.9 82.7 C 51.6 83.2 51.2 83.5 50.5 83.5 C 49.1 83.5 48.3 81.8 48.3 79.9 C 48.3 77.4 49.4 75.9 50.8 75.9 C 51.3 75.9 51.8 76.1 52.2 76.8 C 52.16 76.81 52.2 76.8 52.2 76.8 L 52.3 76 C 52.3 76 53.99 76.04 54 76 C 54 76.7 53.9 77.5 53.9 78.4 C 53.93 78.37 53.9 86.3 53.9 86.3 L 52 86.3 L 52 82.7 Z M 52 78.7 C 52 78.6 51.9 78.4 51.9 78.3 C 51.8 77.8 51.5 77.6 51.2 77.6 C 50.6 77.6 50.3 78.4 50.3 79.7 C 50.3 81 50.6 81.9 51.2 81.9 C 51.5 81.9 51.8 81.7 51.9 81.2 C 51.9 81.1 52 80.9 52 80.8 C 52 80.8 52 78.7 52 78.7 Z M 60.7 81.1 C 60.7 81.9 60.7 82.7 60.7 83.4 C 60.72 83.38 59 83.4 59 83.4 L 58.9 82.6 C 58.9 82.6 58.89 82.6 58.9 82.6 C 58.5 83.1 57.9 83.5 57.2 83.5 C 55.8 83.5 55.2 82.5 55.2 80.5 C 55.23 80.48 55.2 76 55.2 76 L 57.2 76 C 57.2 76 57.2 80.27 57.2 80.3 C 57.2 81.2 57.4 81.8 57.9 81.8 C 58.3 81.8 58.5 81.6 58.6 81.4 C 58.7 81.2 58.7 81 58.7 80.7 C 58.7 80.72 58.7 76 58.7 76 L 60.7 76 C 60.7 76 60.66 81.14 60.7 81.1 Z M 62.1 83.4 L 62.1 76 L 64 76 L 64 83.4 L 62.1 83.4 Z M 64 74.1 C 64.1 74.7 63.6 75.2 63 75.2 C 62.5 75.2 62 74.7 62 74.1 C 62 73.4 62.5 73 63 73 C 63.6 73 64 73.4 64 74.1 Z M 65.4 78.2 C 65.4 77.5 65.4 76.7 65.4 76 C 65.36 76.04 67.1 76 67.1 76 L 67.2 77.1 C 67.2 77.1 67.22 77.11 67.2 77.1 C 67.5 76.3 68.1 75.9 68.7 75.9 C 68.9 75.9 69 75.9 69.1 76 C 69.1 76 69.1 77.9 69.1 77.9 C 69 77.9 68.8 77.9 68.7 77.9 C 68.2 77.9 67.7 78.2 67.5 78.9 C 67.4 79.1 67.4 79.3 67.4 79.6 C 67.38 79.64 67.4 83.4 67.4 83.4 L 65.4 83.4 C 65.4 83.4 65.42 78.24 65.4 78.2 Z M 69.8 78.2 C 69.8 77.5 69.8 76.7 69.8 76 C 69.77 76.04 71.5 76 71.5 76 L 71.6 77.1 C 71.6 77.1 71.63 77.11 71.6 77.1 C 71.9 76.3 72.5 75.9 73.1 75.9 C 73.3 75.9 73.4 75.9 73.5 76 C 73.5 76 73.5 77.9 73.5 77.9 C 73.4 77.9 73.2 77.9 73.1 77.9 C 72.6 77.9 72.1 78.2 71.9 78.9 C 71.8 79.1 71.8 79.3 71.8 79.6 C 71.79 79.64 71.8 83.4 71.8 83.4 L 69.8 83.4 C 69.8 83.4 69.83 78.24 69.8 78.2 Z M 75.8 80.4 C 75.8 81.5 76.5 82 77.4 82 C 77.9 82 78.4 81.8 78.8 81.7 C 78.8 81.7 79 83.1 79 83.1 C 78.5 83.3 77.8 83.5 77 83.5 C 75 83.5 73.9 82.1 73.9 79.9 C 73.9 77.4 75.2 75.9 76.9 75.9 C 78.4 75.9 79.4 77.2 79.4 79.4 C 79.4 79.9 79.3 80.2 79.3 80.4 C 79.3 80.4 75.8 80.4 75.8 80.4 Z M 77.6 79 C 77.6 78.1 77.3 77.3 76.7 77.3 C 76.1 77.3 75.8 78.3 75.8 79 C 75.8 79 77.6 79 77.6 79 Z M 80.5 73 L 82.4 73 L 82.4 83.4 L 80.5 83.4 L 80.5 73 Z " stroke="none" fill="#000" fill-opacity="0.7"/>  </g></svg>
